X: 3
T: Going To Donnybrook
Z: ceolachan
S: https://thesession.org/tunes/735#setting13808
R: jig
M: 6/8
L: 1/8
K: Gmaj
DGG B^AB | AGG GB/c/d | e/f/ge dBG | A^GA B=GE |DGG B^AB | AGF G2 d | ege dBG | AGF G2 :|g2 g e/f/ge | edc def | g2 g eag | fdc d2 f |[1 gfg efg | edc d2 f | gdB A^GA | BGF G2 :|[2 ~g3 ege | edc d3 | g/a/ba gfe | dBA B2 ||
